X: 478
M: 6/4
L: 1/4
K: G
V: 1
|:\
|:\
c2B  cfa  | B2A Bdg  |Tfef gdB | TA3 G3 |]
V: 2 clef=bass middle=d
|:\
g3 G3 | g3 G3 | g3 G3 | d3- d3 |\
g3 G3 | g3 B3 | c3 A3 | d2D G3 :|
|:\
e3   d3- | d3  e3  | f3  g3  | a2A d3 |\
e2^g a2f | d2f g2e | d2c B2G | d2D G3 |]

